X: 1
T: the Devil's Dream
O: Scotland c.1790
Z: John Chambers <jc:trillian.mit.edu>
M: C|
L: 1/8
K: A
(3efg \
| "A"agae agae | agae fedc | "Bm"dfBf dfBf | dfba "E7"gefg |
| "A"agae agae | agae fedc | "D"defd "A"ecBA | "E7"E2G2 "A"A2 :|
|: ed \
| "A"ceAe ceAe | ceag fedc | "Bm"dfBf dfBf | dfba "E7"gfed |
| "A"ceAe ceAe | ceag fedc | "D"defd "A"ecBA | "E7"E2G2 "A"A2 :|
